!! 00000] TT[00
!! NN
!!!OTL: Xin bian de Shange,yong che la
!!!ARE: Asia, China,ÿQinghai, Tongren
!! Ethnic Group: Hui, Han
!! I, 243
!!!SCT: C0062
!!!YEM: Copyright 1995, estate of Helmut Schaffrath.
**kern
*ICvox
*Ivox
!! Mixed meters:  2/4; 3/4
*M3/4
*k[f#c#g#]
*A:
{8b
8b
8e
16e
16f#
=1
2b}
=2
{4ee
8ff#
8aa
=3
8ff#
8ee
8ee
8cc#
=4
2b}
=5
{8b
16b
16a
8f#
16f#
16a
=6
2b}
=7
{4ee
8ff#
16aa
16bb
=8
4ff#
8ff#
8ee
=9
8dd
8b
8ee
8ff#}
=10
{8r
16b
16b
8b
8b
8b
8a
=11
*M2/4
4f#
8a
8b}
=12
{8.b
16ee
8f#
8a
=13
8f#
8e
[4e
=14
2e]}
=15
{4ee
8ff#
16aa
16bb
=16
4ff#
8ff#
8ee
=17
8dd
8b
8ee
8ff#}
=18
*M3/4
{8r
16b
16b
8b
8b
8b
8a
=19
*M2/4
4f#
8a
8b}
=20
{8b
8r
[4ff#
=21
2ff#]
=22
4ggx#}
{8r
8ee
=23
8.ff#
16ee
[4ee
=24
2ee]
=25
4ee
4r}
==
!!!AGN: Shange, Huar, San san er ling. Xin minge
!! neues Volkslied
!!    Die einzelnen Strophen werden variiert. Hier ist die 3. Strophe ange-
!!    geben.
!!!ONB: ESAC (Essen Associative Code) Database: CHINA
!!!AMT: irregular
!!!AIN: vox
!!!EED: Helmut Schaffrath
!!!EEV: 1.0
*-
!!!ONB: Tied note syntax fixed by Craig Sapp, 2004/05/03/
